src/assets/images/Chuva.svg

<svg width="25" height="20" viewBox="0 0 25 20" fill="none" xmlns="http://www.w3.org/2000/svg">
<path d="M6.48918 14.6827C6.58659 14.7104 6.67664 14.7541 6.75418 14.8115C6.83173 14.8688 6.89525 14.9387 6.94111 15.017C6.98697 15.0952 7.01428 15.1805 7.02146 15.2677C7.02865 15.355 7.01558 15.4427 6.98299 15.5256L6.20164 17.5231C6.17221 17.6091 6.12273 17.6891 6.05615 17.7584C5.98958 17.8278 5.90728 17.8849 5.81418 17.9265C5.72108 17.968 5.61909 17.9932 5.51433 18.0004C5.40957 18.0076 5.30417 17.9967 5.20446 17.9683C5.10475 17.94 5.01277 17.8949 4.93403 17.8355C4.85529 17.7762 4.7914 17.704 4.74618 17.6231C4.70097 17.5422 4.67537 17.4544 4.6709 17.365C4.66644 17.2755 4.68321 17.1861 4.72021 17.1023L5.50155 15.1048C5.56685 14.9373 5.70757 14.7986 5.89278 14.7195C6.07799 14.6403 6.29252 14.6271 6.48918 14.6827ZM11.1773 14.6827C11.2747 14.7104 11.3647 14.7541 11.4423 14.8115C11.5198 14.8688 11.5833 14.9387 11.6292 15.017C11.6751 15.0952 11.7024 15.1805 11.7096 15.2677C11.7167 15.355 11.7037 15.4427 11.6711 15.5256L10.1084 19.5206C10.079 19.6066 10.0295 19.6866 9.96289 19.7559C9.89632 19.8252 9.81402 19.8824 9.72092 19.9239C9.62782 19.9655 9.52584 19.9907 9.42107 19.9978C9.31631 20.005 9.21092 19.9942 9.11121 19.9658C9.0115 19.9375 8.91952 19.8923 8.84077 19.833C8.76203 19.7737 8.69814 19.7014 8.65293 19.6206C8.60771 19.5397 8.58211 19.4519 8.57765 19.3624C8.57318 19.273 8.58995 19.1836 8.62695 19.0998L10.1896 15.1048C10.2549 14.9373 10.3957 14.7986 10.5809 14.7195C10.7661 14.6403 10.9806 14.6271 11.1773 14.6827ZM15.8654 14.6827C15.9628 14.7104 16.0528 14.7541 16.1304 14.8115C16.2079 14.8688 16.2714 14.9387 16.3173 15.017C16.3632 15.0952 16.3905 15.1805 16.3976 15.2677C16.4048 15.355 16.3918 15.4427 16.3592 15.5256L15.5778 17.5231C15.5484 17.6091 15.4989 17.6891 15.4323 17.7584C15.3658 17.8278 15.2835 17.8849 15.1904 17.9265C15.0973 17.968 14.9953 17.9932 14.8905 18.0004C14.7857 18.0076 14.6804 17.9967 14.5806 17.9683C14.4809 17.94 14.389 17.8949 14.3102 17.8355C14.2315 17.7762 14.1676 17.704 14.1224 17.6231C14.0772 17.5422 14.0515 17.4544 14.0471 17.365C14.0426 17.2755 14.0594 17.1861 14.0964 17.1023L14.8777 15.1048C14.943 14.9373 15.0838 14.7986 15.269 14.7195C15.4542 14.6403 15.6687 14.6271 15.8654 14.6827ZM20.5534 14.6827C20.6509 14.7104 20.7409 14.7541 20.8185 14.8115C20.896 14.8688 20.9595 14.9387 21.0054 15.017C21.0512 15.0952 21.0785 15.1805 21.0857 15.2677C21.0929 15.355 21.0798 15.4427 21.0473 15.5256L19.4846 19.5206C19.4551 19.6066 19.4057 19.6866 19.3391 19.7559C19.2725 19.8252 19.1902 19.8824 19.0971 19.9239C19.004 19.9655 18.902 19.9907 18.7973 19.9978C18.6925 20.005 18.5871 19.9942 18.4874 19.9658C18.3877 19.9375 18.2957 19.8923 18.217 19.833C18.1382 19.7737 18.0743 19.7014 18.0291 19.6206C17.9839 19.5397 17.9583 19.4519 17.9538 19.3624C17.9494 19.273 17.9661 19.1836 18.0031 19.0998L19.5658 15.1048C19.6311 14.9373 19.7718 14.7986 19.9571 14.7195C20.1423 14.6403 20.3568 14.6271 20.5534 14.6827ZM20.9394 5.36377C20.6149 3.96975 19.7756 2.70074 18.5441 1.74231C17.3127 0.783874 15.7537 0.186279 14.0952 0.0368974C12.4367 -0.112484 10.7656 0.194184 9.3262 0.912063C7.88683 1.62994 6.75472 2.72138 6.09538 4.02679C5.35597 3.95421 4.60696 4.01099 3.89419 4.19366C3.18143 4.37633 2.51992 4.68105 1.95017 5.08916C1.38041 5.49726 0.914395 6.00017 0.580656 6.5671C0.246917 7.13402 0.0524758 7.75302 0.00923727 8.3862C-0.0340013 9.01939 0.0748726 9.65343 0.329193 10.2495C0.583514 10.8456 0.977929 11.3912 1.48829 11.8528C1.99865 12.3145 2.61422 12.6826 3.29731 12.9344C3.9804 13.1863 4.71663 13.3168 5.46092 13.3178H20.3065C21.4959 13.3189 22.6414 12.9348 23.5108 12.2432C24.3803 11.5516 24.9088 10.6043 24.9893 9.59305C25.0697 8.58183 24.6961 7.58236 23.9442 6.79708C23.1922 6.01181 22.1181 5.49944 20.9394 5.36377Z" fill="white"/>
</svg>

<svg xmlns="http://www.w3.org/2000/svg" width="25" height="20" fill="none" viewBox="0 0 25 20"><path fill="#fff" d="M6.49 14.683a.8.8 0 0 1 .264.129.7.7 0 0 1 .187.205.574.574 0 0 1 .042.509l-.781 1.997a.64.64 0 0 1-.146.235.8.8 0 0 1-.242.169.9.9 0 0 1-.61.041.8.8 0 0 1-.27-.133.7.7 0 0 1-.188-.212.578.578 0 0 1-.026-.52l.782-1.998a.7.7 0 0 1 .39-.386c.186-.079.4-.092.597-.036m4.687 0a.8.8 0 0 1 .265.129.7.7 0 0 1 .187.205.575.575 0 0 1 .042.509l-1.563 3.995a.6.6 0 0 1-.145.235.8.8 0 0 1-.242.168.907.907 0 0 1-.61.042.8.8 0 0 1-.27-.133.7.7 0 0 1-.188-.212.59.59 0 0 1-.026-.521l1.563-3.995a.7.7 0 0 1 .39-.386c.186-.079.4-.092.597-.036m4.688 0a.8.8 0 0 1 .265.129.7.7 0 0 1 .187.205.59.59 0 0 1 .042.509l-.781 1.997a.64.64 0 0 1-.146.235.8.8 0 0 1-.242.169.9.9 0 0 1-.61.041.8.8 0 0 1-.27-.133.7.7 0 0 1-.188-.212.59.59 0 0 1-.026-.52l.782-1.998a.7.7 0 0 1 .391-.386c.185-.079.4-.092.596-.036m4.688 0a.8.8 0 0 1 .265.129.7.7 0 0 1 .187.205.575.575 0 0 1 .042.509l-1.562 3.995a.64.64 0 0 1-.146.235.8.8 0 0 1-.242.168.907.907 0 0 1-.61.042.8.8 0 0 1-.27-.133.7.7 0 0 1-.188-.212.578.578 0 0 1-.026-.52l1.563-3.996a.7.7 0 0 1 .391-.386c.185-.079.4-.092.596-.036m.386-9.32c-.324-1.393-1.163-2.662-2.395-3.62-1.231-.96-2.79-1.557-4.449-1.706s-3.33.157-4.769.875-2.571 1.81-3.23 3.115a6.4 6.4 0 0 0-2.202.167 5.8 5.8 0 0 0-1.944.895A4.9 4.9 0 0 0 .58 6.567 4.033 4.033 0 0 0 .33 10.25a4.6 4.6 0 0 0 1.16 1.604c.51.462 1.125.83 1.808 1.081.683.252 1.42.383 2.164.384h14.846c1.189 0 2.334-.383 3.204-1.075.87-.691 1.398-1.639 1.478-2.65s-.293-2.01-1.045-2.796c-.752-.785-1.826-1.298-3.005-1.433"/></svg>
